app/assets/img/style/train_ico.svg

<?xml version="1.0" encoding="UTF-8"?>
<svg width="84px" height="84px" viewBox="0 0 84 84" version="1.1" xmlns="http://www.w3.org/2000/svg" xmlns:xlink="http://www.w3.org/1999/xlink">
    <!-- Generator: Sketch 57.1 (83088) - https://sketch.com -->
    <title>Fill 24</title>
    <desc>Created with Sketch.</desc>
    <g id="Page-1" stroke="none" stroke-width="1" fill="none" fill-rule="evenodd">
        <g id="9.7”-iPad" transform="translate(-497.000000, -1664.000000)" fill="#000000">
            <g id="Group-35" transform="translate(31.000000, 1565.000000)">
                <g id="Group-26" transform="translate(434.000000, 67.038000)">
                    <path d="M67.1502,112.0491 C67.1502,108.2161 70.2552,105.1111 74.0882,105.1111 L81.0262,105.1111 C82.8642,105.1111 84.6302,105.8431 85.9312,107.1441 C87.2322,108.4451 87.9642,110.2101 87.9642,112.0491 L87.9642,115.5181 L67.1502,115.5181 L67.1502,112.0491 Z M94.9022,112.0491 C94.9022,108.2161 98.0062,105.1111 101.8402,105.1111 L108.7782,105.1111 C110.6162,105.1111 112.3822,105.8431 113.6832,107.1441 C114.9842,108.4451 115.7162,110.2101 115.7162,112.0491 L115.7162,115.5181 L94.9022,115.5181 L94.9022,112.0491 Z M55.9072,63.4831 C58.1592,63.4831 60.3932,62.7451 61.7772,61.9711 C64.3962,60.5141 71.1262,56.2721 73.8662,54.6031 C74.6152,54.1491 75.5832,54.3151 76.1352,54.9951 C76.1452,55.0091 76.1552,55.0231 76.1622,55.0331 C76.7352,55.7411 76.6692,56.7641 76.0132,57.3921 C73.8562,59.4631 67.5392,65.4681 64.3232,68.5381 C62.5122,70.2691 61.4712,72.6421 61.3642,75.1431 C61.0342,82.7991 60.4582,99.1201 60.2162,105.7841 C60.1572,107.3451 58.8732,108.5801 57.3122,108.5801 L57.3092,108.5801 C55.7682,108.5801 54.5822,107.3761 54.4092,105.8461 C54.0242,102.4431 53.2672,94.4681 52.9312,91.2351 C52.7922,89.9031 51.9592,89.1091 50.9012,89.1021 C49.8472,89.0981 49.0872,89.8861 48.9972,91.2141 C48.7852,94.4091 48.0782,102.4821 47.8142,105.8531 C47.6962,107.3871 46.4372,108.5801 44.9002,108.5801 L44.8972,108.5801 C43.3292,108.5801 42.0382,107.3421 41.9762,105.7771 C41.6392,97.6531 40.6962,74.6811 40.6962,74.6811 C40.6962,74.6811 37.7302,80.0481 36.2312,82.7641 C35.7462,83.6421 34.6882,84.0271 33.7512,83.6661 L33.7472,83.6661 C32.7802,83.2911 32.2562,82.2401 32.5372,81.2451 C33.5222,77.7691 35.7142,70.0221 36.8522,66.0051 C37.2752,64.5141 38.6392,63.4831 40.1892,63.4831 L55.9072,63.4831 Z M77.5572,87.7661 C81.8652,87.7661 85.3622,91.2631 85.3622,95.5711 C85.3622,99.8801 81.8652,103.3771 77.5572,103.3771 C73.2492,103.3771 69.7522,99.8801 69.7522,95.5711 C69.7522,91.2631 73.2492,87.7661 77.5572,87.7661 L77.5572,87.7661 Z M105.3092,87.7661 C109.6172,87.7661 113.1142,91.2631 113.1142,95.5711 C113.1142,99.8801 109.6172,103.3771 105.3092,103.3771 C101.0002,103.3771 97.5042,99.8801 97.5042,95.5711 C97.5042,91.2631 101.0002,87.7661 105.3092,87.7661 L105.3092,87.7661 Z M115.7162,84.2971 L67.1502,84.2971 L67.1502,77.3591 L91.4332,77.3591 L91.4332,73.8901 L101.8402,73.8901 L101.8402,77.3591 L108.7782,77.3591 L108.7782,39.2011 L39.3982,39.2011 L39.3982,54.3121 L32.4612,61.2501 L32.4612,32.2631 L115.7162,32.2631 L115.7162,84.2971 Z M81.0262,66.9521 L91.4332,66.9521 L91.4332,63.4831 L81.0262,63.4831 L81.0262,66.9521 Z M51.1032,46.1391 C55.4082,46.1391 58.9082,49.6351 58.9082,53.9441 C58.9082,58.2521 55.4082,61.7491 51.1032,61.7491 C46.7942,61.7491 43.2982,58.2521 43.2982,53.9441 C43.2982,49.6351 46.7942,46.1391 51.1032,46.1391 L51.1032,46.1391 Z M81.0262,60.0151 L101.8402,60.0151 L101.8402,56.5461 L81.0262,56.5461 L81.0262,60.0151 Z M81.0262,53.0771 L101.8402,53.0771 L101.8402,49.6081 L81.0262,49.6081 L81.0262,53.0771 Z" id="Fill-24"></path>
                </g>
            </g>
        </g>
    </g>
</svg>

<svg height="84" viewBox="0 0 84 84" width="84" xmlns="http://www.w3.org/2000/svg"><path d="m67.1502 112.0491c0-3.833 3.105-6.938 6.938-6.938h6.938c1.838 0 3.604.732 4.905 2.033s2.033 3.066 2.033 4.905v3.469h-20.814zm27.752 0c0-3.833 3.104-6.938 6.938-6.938h6.938c1.838 0 3.604.732 4.905 2.033s2.033 3.066 2.033 4.905v3.469h-20.814zm-38.995-48.566c2.252 0 4.486-.738 5.87-1.512 2.619-1.457 9.349-5.699 12.089-7.368.749-.454 1.717-.288 2.269.392.01.014.02.028.027.038.573.708.507 1.731-.149 2.359-2.157 2.071-8.474 8.076-11.69 11.146-1.811 1.731-2.852 4.104-2.959 6.605-.33 7.656-.906 23.977-1.148 30.641-.059 1.561-1.343 2.796-2.904 2.796h-.003c-1.541 0-2.727-1.204-2.9-2.734-.385-3.403-1.142-11.378-1.478-14.611-.139-1.332-.972-2.126-2.03-2.133-1.054-.004-1.814.784-1.904 2.112-.212 3.195-.919 11.268-1.183 14.639-.118 1.534-1.377 2.727-2.914 2.727h-.003c-1.568 0-2.859-1.238-2.921-2.803-.337-8.124-1.28-31.096-1.28-31.096s-2.966 5.367-4.465 8.083c-.485.878-1.543 1.263-2.48.902h-.004c-.967-.375-1.491-1.426-1.21-2.421.985-3.476 3.177-11.223 4.315-15.24.423-1.491 1.787-2.522 3.337-2.522zm21.65 24.283c4.308 0 7.805 3.497 7.805 7.805 0 4.309-3.497 7.806-7.805 7.806s-7.805-3.497-7.805-7.806c0-4.308 3.497-7.805 7.805-7.805zm27.752 0c4.308 0 7.805 3.497 7.805 7.805 0 4.309-3.497 7.806-7.805 7.806-4.309 0-7.805-3.497-7.805-7.806 0-4.308 3.496-7.805 7.805-7.805zm10.407-3.469h-48.566v-6.938h24.283v-3.469h10.407v3.469h6.938v-38.158h-69.38v15.111l-6.937 6.938v-28.987h83.255zm-34.69-17.345h10.407v-3.469h-10.407zm-29.923-20.813c4.305 0 7.805 3.496 7.805 7.805 0 4.308-3.5 7.805-7.805 7.805-4.309 0-7.805-3.497-7.805-7.805 0-4.309 3.496-7.805 7.805-7.805zm29.923 13.876h20.814v-3.469h-20.814zm0-6.938h20.814v-3.469h-20.814z" fill-rule="evenodd" transform="translate(-32 -31.962)"/></svg>
